assets/icons/traton/notification.svg

<svg xmlns="http://www.w3.org/2000/svg" width="32" height="32" viewBox="0 0 32 32" fill="none">
<path d="M25.0001 19.55V13C25.0001 8.38 21.4901 4.54999 17.0001 4.06V2H15.0001V4.06C10.5101 4.54999 7.00012 8.38 7.00012 13V19.55L5.00012 21V26H27.0001V21L25.0001 19.55ZM25.0001 24H7.00012V22.02L7.03015 22L9.00012 20.57V13C9.00012 9.14001 12.1401 6 16.0001 6C19.8601 6 23.0001 9.14001 23.0001 13V20.57L24.9701 22L25.0001 22.02V24Z" fill="#001D21" />
<path d="M20.0001 28H12.0001V30H20.0001V28Z" fill="#001D21" />
</svg>

<svg viewBox="0 0 32 32" fill="none" xmlns="http://www.w3.org/2000/svg"><path d="M25 19.55V13a9 9 0 0 0-8-8.94V2h-2v2.06A9 9 0 0 0 7 13v6.55L5 21v5h22v-5l-2-1.45ZM25 24H7v-1.98l.03-.02L9 20.57V13a7 7 0 0 1 14 0v7.57L24.97 22l.03.02V24ZM20 28h-8v2h8v-2Z" fill="#001D21"/></svg>
